X:1
T:She is my love beyond all thought
T:She is my love beyond all thought
T:Copyright © CPDL 
T:Copyright © CPDL 
T:Copyright © CPDL 
T:Copyright © CPDL 
T:Copyright © CPDL 
Z:Copyright © CPDL
%%score ( 1 2 ) { ( 3 4 ) ( 5 6 ) }
L:1/8
Q:1/4=92
M:3/4
K:Eb
V:1 treble nm="Soprano"
V:2 treble 
V:3 treble nm="          Piano" snm=" "
V:4 treble 
V:5 bass nm=" " snm=" "
V:6 bass 
V:1
"^Editor: John Henry Fowler""^(  Revision:   11 - 10 - 2008  )""^Andantino" z3 | %1
w: |
"^From \"English Lyrics\" -  Set 11 -  Number 8""^From \"Songs of the Gael\" - 1908""^Words by Alfred Percival Graves" z6 | %2
w: |
"^Charles Hubert Hastings Parry" z6 |"^( 1848 - 1918 )" z6 | z2 z!mf!!<(! G B!<)!!f!e | %5
w: ||She is my|
 !>!e3!>(! G A!>)!c | F3 F GB | C>D !tenuto!E2 !tenuto!F2 | !>!G4 z G | cB =Ac!<(! G!<)!^F | %10
w: love be- yond all|thought, Though she has|wrought my deep- est|dole; Yet|dear- er for the cru- el|
 d3!<(! G B2-!<)! | BD"^rit." E!>(!G C!>)!F |"^a tempo" F6 | z2 z F Bd | d/d/^F G3 =A | %15
w: pain Than one|_ who fain would make me|whole.|She is my|gli- ter- ing gem of|
 B3 _C _F_A | A>=C _D2 E2 | F4 B2 |!<(! cB!<)! e3 G | GF c4 |!p! z _c _de"^poco rit." F2- | %21
w: gems, Who yet con-|\-~temns my for- tune|bright; Whose|cheek but glows with|red- der scorn|Since mine has worn|
 F_G A B3 |"^a tempo" E6 | z6 | z6 | z6 | z2 z!f!"^poco allargando" G Be | !>!e3 G Ac | %28
w: _ a strick- en|white.||||She is my|sun and moon and|
 D3!p! F"^a tempo"!<(! GB | C>D E2!<)! F2 | G4 z!p! G | cB =Ac ^FA | d3!p! G B2- | BD EG C<F | %34
w: star, Who yet so|far and cold doth|keep, She|would not e- ven o'er my|bier One ten-|* der tear of pi- ty|
 F4 z2 | z2 z!pp! F Bd | d>^F G2 =A2 | B4 z"^cresc." B | BD E z/"^poco allargando" F/ G=B, | %39
w: weep.|In- to my|heart un- sought she|came, A|wast- ing flame, a haunt- ing|
 C3!mf!"^a tempo" G Ge | d>c G2 z!p! E | c6 | z!pp! E"^slower" Ge d2- | dc B2 G2 | %44
w: care; In- to my|heart of hearts, ah~!|why~?|And left a sigh|_ for ev- er|
 E4"^a tempo" z2 | z6 | z6 | z6 | z6 |] %49
w: there.|||||
V:2
 x3 | x6 | x6 | x6 | x6 | x6 | x6 | x6 | x6 | x6 | x6 | x6 | x6 | x6 | x6 | x2 =A, x x2 | x6 | x6 | %18
 x6 | x6 | x6 | x6 | x6 | x6 | x6 | x6 | x6 | x6 | x6 | x6 | x6 | x6 | x6 | x6 | x6 | x6 | x6 | %37
 x6 | x6 | x6 | x6 | x6 | x6 | x6 | x6 | x6 | x6 | x6 | x6 |] %49
V:3
 (G B e) | (GFAc) ED | FEGB, CE | A,3 (A, DF) | A,F, G,2[K:treble] Be | d=B c z z[K:bass] (C- | %6
 C=A, B,) z z (B,- | B,A,)[K:treble] z (E2 D) | (FE) (!>![Ec][D=B]) (!>![Fd][Ec]) | z (G2 ^F) z e | %10
 [Ge][=A^c] [A=c][GB] [FA][EG] | ([DF]2 [B,E]2) z2 |"^a tempo" z (F G)(B =Ae) | %13
 (dB F) z !tenuto![Bdf]2 | z [D^F-] [DG]2 D2 | ^D2 =E2 [_F_A]2 | [=CA]2 _D2 [A,E]2 | E4 [FB]2 | %18
 [EB]2 EF G2 | E2 !tenuto![EG]!tenuto!F !tenuto!c2 | !tenuto![A_ce]2 z2 [EF]2- | [EF]_G A B2 D | %22
 E2 z (G Be) | GFAc ED | EDGB, CE | A,3 A, DF | A,F, G, z[K:treble] z e | !>!d=B c z A2 | %28
 z G2 F z E | z [Ec] z [EB] z [FA] | z E G!>![Ge] [Fd][Ec] | [Gcg]2 z2 [E^F]2 | d^c=cB [=F=A][EG] | %33
 [DF]2 [B,E]2[K:bass] [=A,C]2 | z!<(! F GB!<)! e2- |!>(! ed B!>)! z [Bd]2 | z [D^F] [=EG]2 [F=A]2 | %37
 z B, D.[DGB] =AG | z [_A,B,D] z [G,B,E] z [F,=B,G] | x2 fe dc | z G dc [EG]2 | z E BA E_C | %42
 [G,B,E]2 z2 [^F=Ad]2- | [FAd]2 z2 [_A,DG]2 | E3 G Be | GFA(c ED) | FEGB, CE | A,3 A, DF | %48
 [F,A,]>[E,G,] [G,E] z z2 |] %49
V:4
 x3 | x6 | x6 | A,3 (A, A,2) | E,4[K:treble] x2 | x x x x x[K:bass] [E,A,] | [D,F,]3 x x E, | %7
 C,2[K:treble] x B, A,2 | [G,C]2 G2 G2 | x [C-E] [CD]2 x [E^F] | D3 x (B,2 | B,2) G,2 x2 | %12
 x2 F2 E2 | [DF]3 x x2 | x C- CB, =A,2- | A,2 ^G,2 _C2 | x6 | =A,2 B,2 D2 | B,2 B,2 E2 | %19
 C2 C2 [CE]2 | E2 x2 _C2- | C[_CE]- [CE]2 A,2- | A,=G, x2 x2 | x6 | x6 | A,3 A, A,2 | %26
 E,3 x[K:treble] x [EG] | [EG]3 x [CE]2 | z [B,D]3 x B, | x C x B, x C | x6 | x6 | %32
 ([DG]2 ^FG) B,2- | B,2 G,2[K:bass] E,2 | x2 [DF]2 [GB][_Gc] | ([FB]2 D) x F2 | z C C4 | x6 | x6 | %39
 z G [Gc]2 [EG]2 | x2 [EG]2 C2 | x2 [_CE]2 A,2 | x6 | x6 | ([A,C]2 [G,B,]) x x2 | x6 | x6 | %47
 A,3 (A, A,2) | x6 |] %49
V:5
!p! z E2 | [CE]4 A,2 | G,2 E,2 E,2- | E,C, D,2!<)!!<(! B,,2 | %4
!>(! [E,,B,,]4!>)!!mf!!<(! [G,,,G,,]2!<)! | [C,,C,]4!>(! [F,,,F,,]2!>)! | [A,,,A,,]4 [G,,,G,,]2 | %7
 [A,,,A,,]2 [G,,,G,,]2 [F,,,F,,]2 | z2!<(! !>![E,C][D,=B,] !>![F,D]!<)![E,C] | x6 | %10
 z!>(! [=A,^C][_A,=C][G,B,]!>)!!<(! x2!<)! |"^rit." x6 | [B,,,B,,]2!<(! [D,B,]2!<)! [C,F,]2 | %13
!>(! [B,,F,]3!>)! z!<(! !tenuto![B,DF]2!<)! | [=A,,,=A,,]2 [G,,,G,,]2 [^F,,,^F,,]2 | %15
 =B,,4 [_F,_A,]2 | [E,_G,]2 [_D,_F,]2 [=C,E,]2 | [_C,E,]2 [B,,=D,]2 [_A,,,_A,,]2 | x2 E,F, G,2 | %19
 x2 !tenuto!G,!tenuto!F, x2 |!p! [F,,,F,,]2 [_C,E,F,A,]2"^colla voce" [A,,,A,,]2 | %21
 [_G,,,_G,,]2 [F,,,F,,]2 [B,,,B,,]2 | [E,,,E,,]2!mf! z2"^a tempo" [G,E-]2 | [A,E]2 z2 [B,,A,]2 | %24
 G,2 E,2 E,2- | E,C, D,2!<)!!<(! B,,2 |!>(! B,,3!>)!!f! z"^poco allargando" G,,2 | %27
 G,,2- (3G,,C,E, F,2 |!p! B,,2"^a tempo" A,,2 G,,2 | A,,E, G,,E, F,,F, | %30
 z2!p! z !>![G,E] [F,D][E,C] | [CE]2 z2 =A,2 | G,2!>(! D,2 B,,2 | D,2!>)! z2 F,,2 | x4 G,=A, | %35
 B,3!pp! z D2 | x2 x4 | x4 x2 |"^cresc." x2 x2"^poco allargando" x2 | x2 FE"^a tempo" DC | %40
 E,2 !>!DC C,2 |!p! [A,,,A,,]2!>(! z2!>)! [_C,,_C,]2 |"^colla voce" [B,,,B,,]2 z2 ([^F,=A,D-]2 | %43
 [G,B,D]2) z2 [B,,,B,,]2 | B,,3"^a tempo"!p! z E2 | E2 z2 A,2 | G,2 E,2 E,2- | %47
 E,C, D,2!>)!!>(! B,,2 | [E,,B,,]3 z z2 |] %49
V:6
 x (G,2 | A,2 F,2) (B,,2 | C,2 G,,2) (A,,2 | F,,2 B,,2) B,,,2 | x6 | x6 | x6 | x6 | [C,,C,]6 | %9
 [=A,,,=A,,]2!<(! [D,,D,]2!<)! [C,,C,]2 | [B,,,B,,]4 [C,,C,]2 | [F,,F,]2!>(! z2!>)! [E,,E,]2 | x6 | %13
 x6 | x6 | =F,,2 =E,,2 x2 | x6 | x6 | [G,,,G,,]2 G,,2 E,2 | [A,,,A,,]2 [C,E,]2 !tenuto![G,,,G,,]2 | %20
 x6 | x6 | x6 | x6 | C,2 E,,2 (A,,2 | F,,2 B,,2) B,,,2 | E,,3 x G,,,2 | C,,4 F,,2 | x6 | %29
 A,,2 G,,2 F,,2 | [C,,C,]6 | E,2 x2 C,2 | (B,,=A,,_A,,G,,) D,,E,, | F,,2 x2 x2 | [A,,,F,,]4 B,,2- | %35
 B,,3 x B,2 | [=A,,,=A,,]2 [D,,D,]4 | [G,,,G,,]4 [G,,G,]2 | F,,2 E,,2 D,,2 | %39
 [C,,C,]2 [G,C]2 [E,G,]2 | E,,2 [E,G,]2 C,,2 | x6 | x6 | x6 | E,,3 x (G,2 | A,2) x2 B,,2 | %46
 C,2 G,,2 (A,,2 | F,,2 B,,2) B,,,2 | x6 |] %49

